resources/haticons/SVG/reorder.svg

<!-- Generated by IcoMoon.io -->
<svg version="1.1" xmlns="http://www.w3.org/2000/svg" width="24" height="24" viewBox="0 0 24 24">
<title>reorder</title>
<path d="M3 5.016h18v1.969h-18v-1.969zM3 11.016v-2.016h18v2.016h-18zM3 18.984v-1.969h18v1.969h-18zM3 15v-2.016h18v2.016h-18z"></path>
</svg>

<svg xmlns="http://www.w3.org/2000/svg" width="24" height="24"><path d="M3 5.016h18v1.969H3V5.016zm0 6V9h18v2.016H3zm0 7.968v-1.969h18v1.969H3zM3 15v-2.016h18V15H3z"/></svg>
